svg/fluentui-system-icons/ic_fluent_text_word_count_20_regular.svg

<svg width="20" height="20" viewBox="0 0 20 20" fill="none" xmlns="http://www.w3.org/2000/svg">
<path d="M2.00086 4.5C2.00086 4.22386 2.22471 4 2.50086 4H17.5009C17.777 4 18.0009 4.22386 18.0009 4.5C18.0009 4.77614 17.777 5 17.5009 5H2.50086C2.22471 5 2.00086 4.77614 2.00086 4.5ZM2.00086 9.5C2.00086 9.22386 2.22471 9 2.50086 9H17.5009C17.777 9 18.0009 9.22386 18.0009 9.5C18.0009 9.77614 17.777 10 17.5009 10H2.50086C2.22471 10 2.00086 9.77614 2.00086 9.5ZM7.58722 13C6.97434 13 6.49373 13.5546 6.49373 14.1364C6.49373 14.4125 6.26987 14.6364 5.99373 14.6364C5.71759 14.6364 5.49373 14.4125 5.49373 14.1364C5.49373 13.0817 6.34586 12 7.58722 12C8.31722 12 9.0156 12.3434 9.40435 12.9443C9.80768 13.5678 9.82648 14.3859 9.34684 15.2068C9.10294 15.6242 8.76676 15.9422 8.43348 16.2069C8.26651 16.3395 8.0941 16.4634 7.9303 16.5798C7.90649 16.5967 7.8829 16.6134 7.85953 16.63C7.71896 16.7298 7.58605 16.8241 7.45735 16.9214C7.01802 17.2539 6.70045 17.5685 6.56559 18H9.16134C9.43748 18 9.66133 18.2239 9.66133 18.5C9.66133 18.7761 9.43748 19 9.16134 19H6.00862C6.00614 19 6.00365 19 6.00118 18.9999C5.9987 19 5.99622 19 5.99373 19C5.71759 19 5.49373 18.7761 5.49373 18.5C5.49373 17.3052 6.18501 16.6302 6.85395 16.124C6.99593 16.0166 7.14288 15.9123 7.28276 15.8131C7.30572 15.7968 7.32848 15.7807 7.351 15.7647C7.51399 15.6488 7.66734 15.5383 7.81159 15.4238C8.10077 15.1941 8.32895 14.9667 8.48342 14.7023C8.80053 14.1596 8.73482 13.7504 8.56474 13.4875C8.38006 13.202 8.01612 13 7.58722 13ZM12.0696 13.2695C11.9055 13.415 11.819 13.5967 11.7818 13.7275C11.7064 13.9931 11.4299 14.1473 11.1643 14.0719C10.8986 13.9965 10.7444 13.72 10.8199 13.4543C10.8963 13.1851 11.0678 12.8214 11.406 12.5214C11.7538 12.2129 12.2471 12 12.9074 12C14.2513 12 15.014 12.9842 15.014 13.8636C15.014 14.2164 14.9461 14.7569 14.5825 15.2169C14.5106 15.3078 14.4299 15.3923 14.34 15.4695C14.4752 15.5697 14.6019 15.6927 14.7089 15.8437C14.9054 16.121 15.014 16.4627 15.014 16.8636C15.014 17.5944 14.7695 18.1549 14.3355 18.5232C13.9162 18.8791 13.3853 19 12.9074 19C12.455 19 12.0135 18.9242 11.6348 18.6832C11.2468 18.4362 10.9862 18.0553 10.8257 17.5646C10.7398 17.3022 10.8829 17.0198 11.1453 16.9339C11.4078 16.848 11.6902 16.9911 11.7761 17.2536C11.8832 17.5811 12.0243 17.7456 12.1718 17.8396C12.3287 17.9394 12.5565 18 12.9074 18C13.2328 18 13.5052 17.9163 13.6884 17.7608C13.8568 17.6179 14.014 17.3602 14.014 16.8636C14.014 16.651 13.9593 16.5154 13.893 16.4219C13.8234 16.3237 13.7186 16.2408 13.5765 16.1738C13.2794 16.0337 12.8996 16 12.6397 16C12.3635 16 12.1397 15.7761 12.1397 15.5C12.1397 15.2239 12.3635 15 12.6397 15C13.3448 15 13.6511 14.7825 13.798 14.5967C13.9626 14.3885 14.014 14.1109 14.014 13.8636C14.014 13.543 13.7056 13 12.9074 13C12.4773 13 12.224 13.1326 12.0696 13.2695ZM3.01088 14.3648C2.75569 14.6417 2.46713 14.8921 2.16127 15.0971C1.93189 15.2509 1.6213 15.1896 1.46754 14.9602C1.31379 14.7308 1.37509 14.4203 1.60446 14.2665C2.33682 13.7756 2.89305 12.9879 3.02231 12.3937C3.02231 12.3937 3.13135 12 3.48291 12C3.9837 12 4.01088 12.5 4.01088 12.5V18.5C4.01088 18.7761 3.78702 19 3.51088 19C3.23474 19 3.01088 18.7761 3.01088 18.5V14.3648ZM16.0009 14.5C16.0009 14.2239 16.2247 14 16.5009 14H17.5009C17.777 14 18.0009 14.2239 18.0009 14.5C18.0009 14.7761 17.777 15 17.5009 15H16.5009C16.2247 15 16.0009 14.7761 16.0009 14.5Z" fill="#212121"/>
</svg>

<svg xmlns="http://www.w3.org/2000/svg" width="20" height="20"><path d="M2 4.5a.5.5 0 0 1 .5-.5h15a.5.5 0 0 1 0 1h-15a.5.5 0 0 1-.5-.5Zm0 5a.5.5 0 0 1 .5-.5h15a.5.5 0 0 1 0 1h-15a.5.5 0 0 1-.5-.5ZM7.588 13c-.613 0-1.093.555-1.093 1.136a.5.5 0 0 1-1 0c0-1.054.852-2.136 2.093-2.136.73 0 1.429.343 1.817.944.404.624.422 1.442-.057 2.263-.244.417-.58.735-.914 1-.166.133-.339.256-.503.373l-.07.05c-.141.1-.274.194-.403.291-.439.333-.757.648-.891 1.079H9.16a.5.5 0 0 1 0 1H5.994a.5.5 0 0 1-.5-.5c0-1.195.691-1.87 1.36-2.376.142-.107.289-.212.429-.31l.068-.05c.163-.115.316-.226.46-.34.29-.23.518-.457.672-.722.318-.542.252-.952.082-1.214-.185-.286-.549-.488-.978-.488Zm4.483.27a.986.986 0 0 0-.288.457.5.5 0 1 1-.962-.273c.076-.269.248-.633.586-.933.348-.308.841-.521 1.501-.521 1.344 0 2.107.984 2.107 1.864 0 .352-.068.893-.431 1.353-.072.09-.153.175-.243.252.135.1.262.224.369.375.196.277.305.619.305 1.02 0 .73-.244 1.29-.678 1.66-.42.355-.95.476-1.429.476-.452 0-.893-.076-1.272-.317-.388-.247-.649-.628-.81-1.118a.5.5 0 1 1 .951-.311c.107.327.248.492.396.586.157.1.384.16.735.16.326 0 .598-.084.781-.24.169-.142.326-.4.326-.896a.733.733 0 0 0-.121-.442.787.787 0 0 0-.317-.248c-.297-.14-.676-.174-.936-.174a.5.5 0 1 1 0-1c.705 0 1.011-.217 1.158-.403.165-.208.216-.486.216-.733 0-.321-.308-.864-1.107-.864-.43 0-.683.133-.837.27Zm-9.06 1.095a4.807 4.807 0 0 1-.849.732.5.5 0 1 1-.557-.83c.733-.491 1.289-1.28 1.418-1.873 0 0 .11-.394.46-.394.502 0 .529.5.529.5v6a.5.5 0 0 1-1 0v-4.135ZM16 14.5a.5.5 0 0 1 .5-.5h1a.5.5 0 0 1 0 1h-1a.5.5 0 0 1-.5-.5Z"/></svg>
